X:1
T:title
M:4/4
Q:120
L:1/8
R:Reel
K:C
 ^d' ^Af'2 _D4 | a4 ^F2G _b' |  ^F4 _f'3 _F | e'4E _B ^Df |  ^d ^e2c' _b'3 ^b |  _g ^B4be2 |  ^f2 ^E2 ^a'3e' | a3 _G2 ^dF _D | 